docs/img/medical.svg

<?xml version="1.0"?>
<svg xmlns="http://www.w3.org/2000/svg" xmlns:xlink="http://www.w3.org/1999/xlink" xmlns:svgjs="http://svgjs.com/svgjs" version="1.1" width="512" height="512" x="0" y="0" viewBox="0 0 512 512" style="enable-background:new 0 0 512 512" xml:space="preserve" class=""><g><path xmlns="http://www.w3.org/2000/svg" d="m458.472 248.305v-47.122c0-49.94-40.01-90.569-89.189-90.569s-89.188 40.629-89.188 90.569v213.137c0 33.398-26.552 60.57-59.189 60.57h-37.525c-32.637 0-59.189-27.172-59.189-60.57v-55.171c53.136-7.333 94.192-53.037 94.192-108.156v-229.661h-46.884v-14.222h-30v58.443h30v-14.221h16.884v184.66h-158.384v-184.66h17.051v14.222h30v-58.444h-30v14.222h-47.051v229.66c0 55.119 41.056 100.823 94.192 108.156v55.171c0 49.94 40.01 90.57 89.189 90.57h37.525c49.179 0 89.189-40.63 89.189-90.57v-213.136c0-33.398 26.552-60.569 59.188-60.569s59.189 27.171 59.189 60.569v47.122c-30.593 6.861-53.528 34.221-53.528 66.853 0 37.787 30.742 68.528 68.528 68.528s68.528-30.741 68.528-68.528c0-32.633-22.935-59.992-53.528-66.853zm-427.029 17.687h155.497c-7.032 36.516-39.211 64.191-77.749 64.191-38.536.001-70.715-27.675-77.748-64.191zm412.029 87.695c-21.244 0-38.528-17.284-38.528-38.528s17.284-38.527 38.528-38.527 38.528 17.282 38.528 38.526-17.284 38.529-38.528 38.529z" fill="#ff0000" data-original="#000000" style="" class=""/><path xmlns="http://www.w3.org/2000/svg" d="m426.128 297.815h34.688v34.688h-34.688z" fill="#ff0000" data-original="#000000" style="" class=""/></g></svg>

<svg xmlns="http://www.w3.org/2000/svg" width="512" height="512"><path xmlns="http://www.w3.org/2000/svg" d="M458.472 248.305v-47.122c0-49.94-40.01-90.569-89.189-90.569s-89.188 40.629-89.188 90.569V414.32c0 33.398-26.552 60.57-59.189 60.57h-37.525c-32.637 0-59.189-27.172-59.189-60.57v-55.171c53.136-7.333 94.192-53.037 94.192-108.156V21.332H171.5V7.11h-30v58.443h30V51.332h16.884v184.66H30V51.332h17.051v14.222h30V7.11h-30v14.222H0v229.66c0 55.119 41.056 100.823 94.192 108.156v55.171c0 49.94 40.01 90.57 89.189 90.57h37.525c49.179 0 89.189-40.63 89.189-90.57V201.183c0-33.398 26.552-60.569 59.188-60.569s59.189 27.171 59.189 60.569v47.122c-30.593 6.861-53.528 34.221-53.528 66.853 0 37.787 30.742 68.528 68.528 68.528S512 352.945 512 315.158c0-32.633-22.935-59.992-53.528-66.853zM31.443 265.992H186.94c-7.032 36.516-39.211 64.191-77.749 64.191-38.536.001-70.715-27.675-77.748-64.191zm412.029 87.695c-21.244 0-38.528-17.284-38.528-38.528s17.284-38.527 38.528-38.527S482 293.914 482 315.158s-17.284 38.529-38.528 38.529z" fill="red" data-original="#000000"/><path xmlns="http://www.w3.org/2000/svg" d="M426.128 297.815h34.688v34.688h-34.688z" fill="red" data-original="#000000"/></svg>
